!!!!SEGMENT: pl-cz--iii-50--006_brykner-jerzy--vesperae-in-exitu.krn
!!!id: 17xx:848
!!!COM: Brykner, Jerzy
!!!COM-rism: pe30025739
!!!CDT:
!!!CNT:
!!!OTL: Vesperae – In exitu
!!!PDT:
!!!SMS-siglum: PL-CZ
!!!SMS-shelfmark: III-50
!!!NIFC-rismID: 300033583
!!!URL-scan: http://repozytorium.nifc.pl/skany/pl-cz-nut--iii-50
!!!ONB-nifc: UWAGA: części Vesperae: Dixit Dominus, Confitebor, Beatus vir, Laudate pueri, Laudate Dominum, In exitu, Laetatus sum, Nisi Dominus, Lauda Jerusalem, Credidi, In convertendo, Domine probasti me, Memento Domine David, Confitebor, De profundis, Beati omnes, Magnificat
!!!SMS-variant:
!!!SMS-altvar:
**kern	**fba	**kern	**kern	**kern	**text	**kern	**text
*part5	*	*part4	*part3	*part2	*part2	*part1	*part1
*	*	*group2	*group2	*group1	*	*group1	*
*staff5	*	*staff4	*staff3	*staff2	*staff2	*staff1	*staff1
*I"Organo.	*	*I"Violini Secundo.	*I"Violini Primo.	*I"Baſso.	*	*I"Canto.	*
*I'org	*	*I'vl 2	*I'vl 1	*I'B	*	*I'S	*
*clefF4	*	*clefG2	*clefG2	*clefF4	*	*clefC1	*
*k[f#]	*	*k[f#]	*k[f#]	*k[f#]	*	*k[f#]	*
*G:	*	*G:	*G:	*G:	*	*G:	*
*M4/4	*	*M4/4	*M4/4	*M4/4	*	*M4/4	*
*met(c)	*	*met(c)	*met(c)	*met(c)	*	*met(c)	*
=1	=1	=1	=1	=1	=1	=1	=1
*	*	*all\right	*	*	*	*	*
!LO:TX:a:t=P:problem:mixed beam	!	!	!	!	!	!	!
!LO:TX:a:t=Tutti.	!	!LO:TX:a:t=5tus	!	!	!	!	!
!LO:TX:b:t=In exitu.	!	!LO:TX:b:t=In exitu.	!LO:TX:b:t=Inexitu	!	!	!	!
8GG/L	.	8b/L	8dd\L	8r	.	8r	.
8G\	.	8dd/	8bb\J	8G\	IN	8b\	IN
8F#\	.	8dd/	8aa\L	8F#\	e-	8a\	e-
8D\J	.	8dd/J	16gg\L	16D\	-xi-	16dd\	-xi-
.	.	.	16ff#\JJ	16D\	-tu	16dd\	-tu
8G\L	.	16dd/LL	8bb\L	8G\	I-	8b\	I-
.	.	16dd/	.	.	.	.	.
8F#\	.	16dd/	8aa\	16F#\	srȧ-	16a\	srȧ-
.	.	16dd/JJ	.	16F#\	-ėl	16a\	-ėl
8G\	.	8dd\L	8gg\	8G\	de	8b\	de
8A\J	.	8cc\J	8ff#\J	8A\	Ae-	8cc\	Ae-
=2	=2	=2	=2	=2	=2	=2	=2
8B\L	6	8b\L	8gg\L	8B\	-gy-	8dd\	-gy-
8G\J	.	8dd\	8bb\	8G\	-pto	8dd\	-pto
8BB/L	.	8gg\	8bb\	8BB/	do-	8dd\	do-
8GG/J	.	8gg\J	8bb\J	8BB/	-m(us)	8dd\	-m(us)
8E\L	7	8ee\L	8gg\L	8E\	Ja-	8dd\	Ja-
.	.	8qqdd/	.	.	.	.	.
8A\	7	8cc\J	16aa\L	16A,\	-cob	16cc\	-cob
.	.	.	16gg\JJ	16A\	de	16cc\	de
.	.	8qqb/	.	.	.	.	.
8D\	7	8a/L	8ff#\L	8D\	po-	8cc\	po-
8G\J	.	8b/J	8gg\J	16G\	-pu-	16b\	-pu-
.	.	.	.	16G\	-lo	16a\	-lo
=3	=3	=3	=3	=3	=3	=3	=3
*2\right	*	*	*	*	*	*	*
2D\	4	4b/	8gg\L	4.D\	bar-	(4g\	bar-
.	.	.	16ff#\L	.	.	.	.
.	.	.	16ee\JJ	.	.	.	.
.	3	4a/	4ff#\	.	.	8.a\)	.
.	.	.	.	8D\	-ba-	.	.
.	.	.	.	.	.	16g\	-ba-
4GG/	.	4b/	4gg\	4GG/	-ro	8g\	-ro
.	.	.	.	.	.	16dd\	fa-
.	.	.	.	.	.	16cc\	-cta
!LO:TX:a:t=P:problem:mixed beam	!	!	!	!	!	!LO:LB:g=original	!
8G\L	.	4r	4r	4r	.	8b\	est
!LO:TX:a:t=Solo.	!	!	!	!	!	!	!
8C/J	.	.	.	.	.	8ee\	Ju-
=4	=4	=4	=4	=4	=4	=4	=4
4D\	9	00r	00r	8.F#\	I-	8ee\	-dae-
.	8	.	.	.	.	16dd\	-a
.	.	.	.	16F#\	-srȧ-	16cc\	san-
!	!	!	!	!LO:SIC:v:custos G	!	!	!
!	!	!	!	!LO:LB:g=original	!	!	!
4E\	.	.	.	8.G\	-ėl	8b\	-cti-
.	.	.	.	.	.	8ee\	-fi-
.	.	.	.	16F#\	po-	.	.
8A\L	#	.	.	8E\	-tes-	8cc#X\	-ca-
8D\J	.	.	.	16F#\LL	-tas	16dd\	-ti-
.	.	.	.	16G\JJ	.	16dd\	-o
4AA/	4	.	.	4E\	e-	8dd\L	e-
.	#	.	.	.	.	8cc#\J	.
=5	=5	=5	=5	=5	=5	=5	=5
4D\	.	.	.	8D\	-jus,	4dd\	-jus.
.	.	.	.	16F#\	ma-	.	.
.	.	.	.	16F#\	-re	.	.
4GG/	.	.	.	8G\	vi-	4r	.
.	.	.	.	16B,\	-dit,	.	.
.	.	.	.	16A\	et	.	.
4BB/	6	.	.	8G\L	fu-	4r	.
.	.	.	.	16F#\L	.	.	.
.	.	.	.	16G\JJ	.	.	.
4C/	.	.	.	8E\	-git.	8r	.
.	.	.	.	8E\	Jor-	16g\	Mon-
.	.	.	.	.	.	16g\	-tes
=6	=6	=6	=6	=6	=6	=6	=6
4AA/	.	.	.	8A\L	-da-	8cc\L	ex-
.	.	.	.	16c\L	.	16ee\L	.
.	.	.	.	16B\JJ	.	16dd\JJ	.
8D#X\L	7 3	.	.	8A,\	-nis	8cc\	-ul-
8E\J	.	.	.	8G\	con-	16b\LL	-ta-
.	.	.	.	.	.	16cc\JJ	.
4BB/	7 #	.	.	8F#\	-ver-	16a\	-ve-
.	.	.	.	.	.	16a,\	-ru(n)t
.	.	.	.	16E\LL	-s(us)	16g\	ut
.	.	.	.	16D#X\JJ	.	16f#/	a-
8E\L	.	.	.	16E\LL	est	8.g\	-ri-
.	.	.	.	16F#\JJ	.	.	.
8C\J	5	.	.	16G\LL	re-	.	.
.	6	.	.	16A\JJ	.	16g\	-e-
!	!	!	!	!	!	!LO:LB:g=original	!
=7	=7	=7	=7	=7	=7	=7	=7
!LO:TX:a:t=P:problem:mixed beam	!	!	!	!	!	!	!
8BB/L	6	.	.	8B\	-tror-	8f#/	-tes,
8B\	.	.	.	8BB/	-sum.	8b\	et
8c\	.	.	.	4r	.	16e/LL	col-
.	.	.	.	.	.	16f#/JJ	.
8A\J	6	.	.	.	.	16g\LL	-les
.	.	.	.	.	.	16a\JJ	.
!LO:LB:g=original	!	!	!	!LO:LB:g=original	!	!	!
8G\L	6	.	.	2r	.	16b\LL	si-
.	.	.	.	.	.	16a\JJ	.
8E\	.	.	.	.	.	16b\LL	-cut
.	.	.	.	.	.	16cc\JJ	.
8F#\	6\	.	.	.	.	16a\LL	ag-
.	.	.	.	.	.	16g\	.
8D#X\J	.	.	.	.	.	16a\	.
.	.	.	.	.	.	16b\JJ	.
=8	=8	=8	=8-	=8	=8	=8	=8
8E\L	.	2r	2r	2r	.	8g/	.
8C\J	.	.	.	.	.	16f#/LL	-ni
.	.	.	.	.	.	16e/JJ	.
8AA/L	6 5	.	.	.	.	8.f#/	o-
8BB/J	#	.	.	.	.	.	.
.	.	.	.	.	.	16e/	-vi-
4E\	.	4r	4r	4r	.	4e/	-um,
!LO:TX:a:t=T.	!	!	!	!	!	!	!
16G\LL	.	16dd\LL	16gg\LL	16G\	Quid	16b\	quid
16F#\	.	16dd\	16gg\	16F#\	est	16a\	est
16G\	.	16dd\	16gg\	16G\	ti-	16b\	ti-
16A\JJ	.	16dd\JJ	16gg\JJ	16A\	-bi	16cc\	-bi
!	!	!	!LO:LB:g=original	!	!	!	!
=9	=9	=9	=9	=9	=9	=9	=9
8B\L	6	8dd\L	8gg\L	8B\	ma-	8dd\	ma-
8F#\	6	8dd\	8aa\J	8F#\	-re	8a\	-re
8G\	.	8dd\	8bb\L	8G\	q(uo)d	8b\	quod
8E\J	6\	8cc#X\J	16aa\L	8E\	fu-	8cc#X\	fu-
.	.	.	16gg\JJ	.	.	.	.
!	!	!	!	!	!	!LO:SIC:v:custos dd	!
!	!	!LO:LB:g=original	!	!	!	!LO:LB:g=original	!
8D\L	.	8dd\	16ff#\LL	8D\	-gi-	8dd\	-gi-
.	.	.	16dd\	.	.	.	.
16D\L	.	4a/	16ff#\	16D\	-sti,	16dd\	-sti,
16E\JJ	.	.	16gg\JJ	16E\	et	16dd\	et
8F#\L	6	.	8aa\L	8F#\	tu	8dd\	tu
16G\L	.	16b\LL	8gg\J	16G\LL	Jor-	16b\LL	Jor-
16A\JJ	.	16cc#X\JJ	.	16A\JJ	.	16cc#\JJ	.
=10	=10	=10	=10	=10	=10	=10	=10
8B\L	.	8.dd\L	8.ff#\L	8B\	-da-	8dd\	-da-
16A\L	.	.	.	16A\LL	-nis	16cc#X\LL	-nis
16G\JJ	.	16ee\Jk	16ee\Jk	16G\JJ	.	16b\JJ	.
8F#\L	6	8ff#\L	8dd\L	8F#\	qui-	8a\	qui-
8G\J	.	8dd\J	8bb\J	16G\	-a	16b\	-a
.	.	.	.	16G\	co(n)-	16b\	con-
8E\L	6\	8gg\L	8cc#X\L	8E\	-ver-	16cc#X\LL	-ver-
.	.	.	.	.	.	16dd\JJ	.
8C#X\J	.	16ff#\L	16aa\L	8C#X/	-s(us)	8ee\	-sus
.	.	16ee\JJ	16gg\JJ	.	.	.	.
8D/L	.	8ff#\L	8ff#\L	8D/	es	8ff#\	es
8GG/J	.	16ee\L	8gg\J	8GG/	re-	(16ee\LL	re-
.	.	16dd\JJ	.	.	.	16dd\JJ)	.
!	!	!	!	!LO:LB:g=original	!	!	!
=11	=11	=11	=11	=11	=11	=11	=11
2AA/	4	4dd\	4ff#\	2AA/	-tror-	(4dd\	-tror-
.	#	4cc#X\	4ee\	.	.	4cc#X\)	.
4D\	.	4dd\	4dd\	4D\	-sum,	4dd\	-sum,
8d\L	.	8dd\L	8ff#\L	8d\	mo(n)-	8ff#\	mo(n)-
8A\J	#	8cc#X\J	8aa\J	8A\	-tes	8ee\	-tes
=12	=12	=12	=12	=12	=12	=12	=12
16F#\LL	.	16dd\LL	16aa\LL	16F#\LL	ex-	16dd\LL	ex-
16D\	.	16a\	16aa\	16D\JJ	.	16a\JJ	.
16F#\	.	16dd\	16aa\	16F#\LL	-ul-	16dd\LL	-ul-
16A\JJ	.	16ee\JJ	16aa\JJ	16A\JJ	.	16ee\JJ	.
8d\L	.	8ff#\L	16aa\LL	8d\	-ta-	8ff#\	-ta-
.	.	.	16aa\	.	.	.	.
8c#X\J	.	8ee\J	16aa\	8c#X\	-stis	8ee\	-stis
.	.	.	16aa\JJ	.	.	.	.
!LO:SIC:v:custos dd	!	!	!	!	!	!	!
!LO:LB:g=original	!	!	!	!	!	!	!
!LO:TX:a:t=P:problem:mixed beam	!	!	!	!	!	!LO:LB:g=original	!
8d\L	.	8ff#\L	8aa\L	8d\	si-	8ff#\	ſi-
8G#X\	.	16ee\L	8bb\	16G#X\	-cut	16ee\	-cut
.	.	16dd\JJ	.	16G#\	a-	16dd\	a-
8A\	#	8cc#X\L	8ee\	8A\	-ri-	8cc#X\	-ri-
8AA/J	.	8cc#\J	8ee\J	16A\	-e-	16b\	-e-
.	.	.	.	16A\	-tes,	16a\	-tes,
!	!	!	!LO:LB:g=original	!	!	!	!
=13	=13	=13	=13	=13	=13	=13	=13
8F#\L	#	16a#X\LL	16ff#\LL	8r	.	8r	.
!	!	!LO:SIC:v:s=16cc#	!	!	!	!	!
.	.	16cc\	16aa#X\	.	.	.	.
!	!	!LO:SIC:v:s=16cc#	!	!	!	!	!
8F#\	.	16cc\	16aa#\	8F#\	et	8cc#X\	et
!	!	!LO:SIC:v:s=16cc#	!	!	!	!	!
.	.	16cc\JJ	16aa#\JJ	.	.	.	.
8B\	.	16dd\LL	16bb\LL	8B\	col-	8dd\	col-
.	.	16dd\	16bb\	.	.	.	.
8E#X\J	7 5	16dd\	16bb\	8E#X\	-les	8dd\	-les
.	.	16dd\JJ	16bb\JJ	.	.	.	.
16F#\LL	4	8dd\L	8bb\L	16F#\LL	si-	8dd\	si-
16E#\	.	.	.	16E#\JJ	.	.	.
16F#\	#	8cc#X\	8aa#X\J	16F#\LL	-cut	8cc#X\	-cut
16E#\JJ	.	.	.	16E#\JJ	.	.	.
16D/LL	7	8cc#\	8bb\L	16D/LL	a-	8cc#\	a-
!LO:SIC:v:s=16C#	!	!	!	!	!	!	!
16C/	.	.	.	16C#X/	.	.	.
16D/	6	8b\J	16ff#\L	16D/	.	8b\	-gni
16BB/JJ	.	.	16ee\JJ	16BB/JJ	.	.	.
=14	=14	=14	=14	=14	=14	=14	=14
8G\L	.	8b\L	8dd\L	8G\	-gni	(4b\	o-
8E\J	6\ 5	16cc#X\L	8gg\J	8E\	.	.	.
.	.	16dd\JJ	.	.	.	.	.
!	!	!LO:LB:g=original	!	!	!	!	!
4F#\	#	4a#X/	16ff#\LL	8.F#\	o-	8.a#X\)	.
.	.	.	16ee\	.	.	.	.
.	.	.	16dd\	.	.	.	.
.	.	.	16cc#X\JJ	16F#\	-vi-	16b\	-vi-
4BB/	.	4b/	4dd\	4BB/	-um,	8b\	-um
.	.	.	.	.	.	8dd\	à
!LO:TX:a:t=Solo.	!	!	!	!	!	!	!
8G\L	.	4r	4r	4r	.	8b\	fa-
8E\J	.	.	.	.	.	16cc#X\	-ci-
.	.	.	.	.	.	16cc#\	-e
!	!	!	!	!LO:LB:g=original	!	!	!
=15	=15	=15	=15	=15	=15	=15	=15
8F#\L	6	0r	0r	2r	.	8dd\	Do-
8D\	.	.	.	.	.	16d/	-mi-
.	.	.	.	.	.	16d/	-ni
!	!	!	!	!	!	!LO:SIC:v:custos b	!
!	!	!	!	!	!	!LO:PB:g=original	!
8G\	.	.	.	.	.	8b\	mo-
8F#\J	.	.	.	.	.	16a\	-ta
.	.	.	.	.	.	16a\	eſt
4E\	7	.	.	4r	.	4g\	ter-
.	6\	.	.	.	.	.	.
4D\	.	.	.	8r	.	4f#/	-ra.
.	.	.	.	8A\	à	.	.
=16	=16	=16	=16	=16	=16	=16	=16
8Cn/L	.	.	.	8E\	fa-	2r	.
8AA/	6	.	.	16F#\	-ci-	.	.
.	.	.	.	16F#\	-e	.	.
8BB/	6	.	.	8G\	De-	.	.
8GG/J	.	.	.	8GG/	-i	.	.
8C/L	.	.	.	8E\L	Ja-	8g/	Qui
8BB/J	.	.	.	8D\J	.	8g/	con-
4AA/	7	.	.	4C/	.	8g/	-ver-
.	6	.	.	.	.	8f#/	-tit
=17	=17	=17	=17	=17	=17	=17	=17
4GG/	.	1r	1r	4BB/	-cob,	16g/LL	pe-
.	.	.	.	.	.	16f#/JJ	.
.	.	.	.	.	.	16g\	-tram
.	.	.	.	.	.	16a\	in
8G\L	.	.	.	8r	.	16b\LL	sta-
.	.	.	.	.	.	16g\JJ	.
8Fn\J	.	.	.	16r	.	16a\	-gna
.	.	.	.	16G\	et	16b\	a-
8E\L	6	.	.	8G\	ru-	8cc\	-qua-
8C\	.	.	.	16Fn\	-pe(m)	16cc\	-rum,
.	.	.	.	16G\	in	16cc\	et
8Fn\	.	.	.	8A\	fon-	8cc\	ru-
8D\J	.	.	.	16Fn\	-tes	16dd\	-pe(m)
.	.	.	.	16E\	a-	16cc\	in
!LO:LB:g=original	!	!	!	!	!	!	!
=18	=18	=18	=18	=18	=18	=18	=18
8G\L	.	2r	2r	8D\L	qua-	8b\	fon-
8C\J	.	.	.	8E\J	.	16cc\	-tes
.	.	.	.	.	.	16cc\	a-
4GG/	.	.	.	4D\	.	8cc\L	-qua-
.	.	.	.	.	.	8b\J	.
8C/	.	8r	8r	8C,/	-rum.	8cc\	-rum.
!LO:TX:a:t=T.	!	!	!	!	!	!LO:LB:g=original	!
8C\L	.	8ee\L	8ccc\L	8C/	Non	8ee\	Non
8E\	.	8ee\	8ccc\	8E\	no-	8ee\	no-
8G\J	.	8dd\J	8bb\J	8G\	-bis	8dd\	-bis
=19	=19	=19	=19	=19	=19	=19	=19
8.c\L	.	8ee\L	16ccc\LL	8.c\	D(o-	8.ee\	Do-
.	.	.	16ee\	.	.	.	.
.	.	16ffn\L	16ffn\	.	.	.	.
16B\K	.	16gg\JJ	16gg\JJ	16B\	-mi)-	16dd\	-mi-
8A\	.	8aa\	8cc\	8A\	-ne,	8cc\	-ne
8Fn\J	.	4cc\	4aa\	8Fn\	non	16dd\LL	non
.	.	.	.	.	.	16ee\JJ	.
!	!	!	!	!LO:SIC:v:custos D	!	!	!
!	!	!	!	!LO:LB:g=original	!	!	!
8D\L	7	.	.	8D\L	no-	4ffn\	no-
8G\J	.	8b/	16gg\LL	8G\J	.	.	.
.	.	.	16ff\JJ	.	.	.	.
4C/	.	8.ee\L	4ee\	8C,/	-bis,	8ee\	-bis,
.	.	.	.	8C/	sed	8ee\	sed
.	.	16dd\Jk	.	.	.	.	.
!	!	!	!LO:LB:g=original	!	!	!	!
=20	=20	=20	=20	=20	=20	=20	=20
8.Fn\L	.	8.cc\L	8.aa\L	8.Fn\	No-	8cc\	No-
.	.	.	.	.	.	16dd\LL	-mi-
16E\Jk	.	16cc\K	16gg\Jk	16E\	-mi-	16ee\JJ	.
4D\	n	8.dd\	8ffn\L	8D\	-ni	8ffn\	-ni
.	.	.	8aa\J	8D\	tu-	8dd\	tu-
.	.	16cc\Jk	.	.	.	.	.
8E\L	#	8b\L	8gg#X\L	8E\	-o	8b\	-o
8A\J	.	8cc\J	8aa\	8A\	da	16cc\LL	da
.	.	.	.	.	.	16a\JJ	.
4E\	4	4b/	8dd\	8.E\	glo-	8.b\	glo-
.	3	.	8gg#\J	.	.	.	.
.	.	.	.	16E\	-ri-	16a\	-ri-
=21	=21	=21	=21	=21	=21	=21	=21
4AA/	.	4a/	4aa\	8AA/	-am,	4a\	-am
.	.	.	.	8A\	Su-	.	.
4BB/	6	4r	4r	16G\LL	-per	4r	.
.	.	.	.	16D\JJ	.	.	.
.	.	.	.	16G\LL	mi-	.	.
.	.	.	.	16Fn\JJ	.	.	.
!LO:TX:a:t=S&colon;	!	!	!	!	!	!	!
8C/L	.	2r	2r	8E\	-se-	8g\	ne-
8BB/J	.	.	.	16F#X\LL	-ri-	16a\	-quan-
.	.	.	.	16G\JJ	.	16b\	-do
8AA/L	.	.	.	8A\	-cor-	8cc\	di-
16BB/L	.	.	.	16G\	-di-	8b\	-ca(n)t
16C/JJ	.	.	.	16G\	-a	.	.
!	!	!	!	!	!	!LO:LB:g=original	!
=22	=22	=22	=22	=22	=22	=22	=22
8D/L	#	00r	00r	8F#\	tu-	8a\	gen-
8C/	.	.	.	16G\	-a,	16b\LL	-tes
.	.	.	.	16A\	et	16cc\JJ	.
8BB/	6	.	.	8B\	ve-	8dd\	u-
8GG/J	.	.	.	16A\LL	-ri-	16cc\	-bi
.	.	.	.	16G\JJ	.	16b\	est
8C/L	.	.	.	8A\	-ta-	8cc\	De-
8GG/	.	.	.	8G\	-te	16b\	-us
.	.	.	.	.	.	16b\	e-
!	!	!	!	!LO:SIC:v:custos G	!	!	!
!	!	!	!	!LO:LB:g=original	!	!	!
8C/	6 5	.	.	8G\L	tu-	4a\	-o-
8D/J	.	.	.	8F#\J	.	.	.
=23	=23	=23	=23	=23	=23	=23	=23
!LO:TX:a:t=P:problem:mixed beam	!	!	!	!	!	!	!
8GG/L	.	.	.	4G,\	-a	4g\	-rum,
8G\	.	.	.	.	.	.	.
8G\	.	.	.	16G\	De-	16b\	De-
.	.	.	.	16F#\	-us	16a\	-us
8G\J	.	.	.	16G\	au-	16b\	au-
.	.	.	.	16A\	-tem	16cc\	-tem
8G\L	.	.	.	8B\	noſ-	8dd\	noſ-
8G\	.	.	.	16c\	-ter	16ee\	-ter
.	.	.	.	16B\	in	16dd\	in
8G\	4 2	.	.	4A\	cae-	4cc\	cae-
8F#\J	.	.	.	.	.	.	.
!LO:LB:g=original	!	!	!	!	!	!	!
=24	=24	=24	=24	=24	=24	=24	=24
4G\	.	.	.	4G\	-lo	4b\	-lo
16E\LL	.	.	.	4r	.	16ee\	om-
16F#\	.	.	.	.	.	16ee\	-ni-
16G\	.	.	.	.	.	16ee\	-a
16E\JJ	.	.	.	.	.	16ee\	quae-
8A\L	.	.	.	16A\	om-	8cc\	-cum-
.	.	.	.	16A\	-ni-	.	.
8G\	.	.	.	16A\	-a	8a\	-q(ue)
.	.	.	.	16G\	quae-	.	.
8F#\	.	.	.	8F#\	-cum-	16dd\LL	vo-
.	.	.	.	.	.	16a\	.
8D\J	.	.	.	8D\	-q(ue)	16dd\	.
.	.	.	.	.	.	16cc\JJ	.
!	!	!	!	!	!	!LO:LB:g=original	!
=25	=25	=25	=25	=25	=25	=25	=25
!LO:TX:a:t=P:problem:mixed beam	!	!	!	!	!	!	!
8G\L	.	.	.	8G\	vo-	8b\	.
8GG/J	.	.	.	16F#\	-lu-	16a\	-lu-
.	.	.	.	16F#\	-it	16g\	-it
4C/	6	.	.	4E\	fe-	4a\	fe-
!LO:TX:a:t=P:problem:mixed beam	!	!	!	!	!	!	!
8BB/L	#	.	.	4D#X\	-cit	8b\	-cit.
8B\	.	.	.	.	.	4dd\	Si-
8G#X\	.	.	.	4r	.	.	.
8E\J	.	.	.	.	.	16cc\LL	-mu-
.	.	.	.	.	.	16b\JJ	.
=26	=26	=26	=26	=26	=26	=26	=26
8AA/L	.	1r	1r	2r	.	8cc\	-la-
8C/J	.	.	.	.	.	8a\	-cra
4D\	6 n	.	.	.	.	8.b\	gen-
.	.	.	.	.	.	16a\	-ti-
8E\L	#	.	.	8E\	o-	8g#X\	-um
8D\	.	.	.	16G#X\	-pe-	8b\	ar-
.	.	.	.	16G#\	-ra	.	.
!	!	!	!	!LO:SIC:v:custos A	!	!	!
!	!	!	!	!LO:LB:g=original	!	!	!
8C\	6	.	.	8A\	ma-	8cc\	-gen-
8D\J	.	.	.	16D\	-nu-	16b\	-tu(m),
!	!	!	!LO:TX:b:i:t=V&colon;S&colon;	!	!	!	!
.	.	.	.	16D\	-u(m)	16b\	et
!	!	!	!LO:PB:g=original	!	!	!	!
=27	=27	=27	=27	=27	=27	=27	=27
4E\	4	2r	2r	4.E\	ho-	(4a\	au-
4EE/	#	.	.	.	.	4g#X\)	.
.	.	.	.	8E\	-mi-	.	.
!LO:TX:a:t=P:problem:mixed beam	!	!	!	!	!	!	!
8AA/L	.	8r	8r	8AA/	-nu(m).	8a\	-rum.
!LO:TX:a:t=T&colon;	!	!	!	!	!	!	!
8A\	.	8cc\L	8ee\L	8A\	Os	8cc\	Os
8G#X\	.	8b\	8ee\	8G#X\	ha-	8b\	ha-
8F#X\J	.	8ee\J	8aa\J	8F#\	-bent,	8a\	-be(n)t,
=28	=28	=28	=28	=28	=28	=28	=28
16E\LL	#	16ee\LL	16gg#X\LL	16E\LL	et	16g#X\LL	et
16F#\	.	16ee\	16aa\	16F#\JJ	.	16a\JJ	.
16G#X\	.	16ee\	16bb\	16G#X\	non	16b\	non
16E\JJ	.	16ee\JJ	16gg#\JJ	16E\	lo-	16g#X\	lo-
8A\L	.	8ee\L	8aa\L	8A\	-que(n)-	8cc\	-que(n)-
8A\J	.	8ee\J	8aa\J	8A\	-tur,	8cc\	-t(ur).
!	!	!LO:LB:g=original	!	!	!	!LO:LB:g=original	!
8d\L	n	8ffn\L	8aa\L	8d\	o-	8ffn\	O-
8c\	.	8ee\	16aa\L	16c\	-cu-	16ee\	-cu-
.	.	.	16aa\JJ	16c\	-los	16ee\	-los
8B\	6	8dd\	8gg#\L	8B\	ha-	8dd\	ha-
8c\J	.	8ee\J	8gg#\J	8c\	-bent,	8ee\	-bent,
=29	=29	=29	=29	=29	=29	=29	=29
8B\L	6	8dd\L	8gg\L	8B\	et	8dd\	et
8A\J	6\	8cc\	8ff#\	16A\	non	16cc\	non
.	.	.	.	16A\	vi-	16cc\	vi-
!LO:LB:g=original	!	!	!	!	!	!	!
4G\	.	8b\	8gg\	8G\	-de-	8b\	-de-
.	.	8dd\J	8gg\J	8G\	-bu(n)t,	8b\	-bu(n)t.
8c\L	.	8ee\L	8gg\L	8c\	au-	8ee\	Au-
8A\	.	8cc\J	8aa\	8A\	-res	8cc\	-res
8F#\	6	8dd\L	8aa\	8F#\	ha-	8dd\	ha-
8G\J	.	16b\L	8bb\J	8G\	-bent,	8dd\	-bent,
.	.	16cc\JJ	.	.	.	.	.
!	!	!	!	!LO:SIC:v:custos F#	!	!	!
!	!	!	!	!LO:LB:g=original	!	!	!
=30	=30	=30	=30	=30	=30	=30	=30
8F#\L	6	8dd\L	8aa\L	8F#\	et	8dd\	et
8E\J	6\	8cc#X\	8gg\J	8E\	non	8cc#X\	non
4D\	.	8dd\	16ff#\LL	8D\	au-	8dd\	au-
.	.	.	16gg\	.	.	.	.
.	.	8dd\J	16aa\	16D\	-di-	16dd\	-di-
.	.	.	16ff#\JJ	16D\	-ent,	16dd\	-ent,
4BB/	6	16dd\LL	8.bb\L	8BB/	na-	8dd\	na-
.	.	16gg\	.	.	.	.	.
.	.	16ff#\	.	8BB/	-res	8dd\	-res
.	.	16gg\JJ	16aa\Jk	.	.	.	.
8.C/L	9	8ee\L	8gg\L	8.C/	ha-	8dd\	ha-
!	!	!	!	!	!	!LO:SIC:v:s=8ccn	!
.	8	8ee\J	8gg\J	.	.	8cc#\	-be(n)t,
16D/Jk	.	.	.	16D/	-be(n)t,	.	.
=31	=31	=31	=31	=31	=31	=31	=31
8E\L	6	8b\L	8gg\L	8E\	et	8b\	et
8C\	.	8ee\	8aa\	8C\	non	8cc\	non
!	!	!	!	!	!	!LO:SIC:v:custos cc	!
!	!	!	!	!	!	!LO:LB:g=original	!
8D\	7	8a\	8ff#\	8D\	o-	8cc\	o-
8G\J	.	8b\J	8gg\J	8G\	-do-	16b\LL	-do-
.	.	.	.	.	.	16a\JJ	.
!	!	!	!LO:LB:g=original	!	!	!	!
8E\L	.	8b\L	8gg\L	8E\L	-ra-	4g\	-ra-
8C\J	6	8cc\J	16ff#\L	8C\J	.	.	.
.	.	.	16ee\JJ	.	.	.	.
!	!	!	!	!	!	!LO:TX:a:t=t	!
4D\	.	4a/	4ff#\	4D\	.	4a\	.
=32	=32	=32	=32	=32	=32	=32	=32
!LO:TX:a:t=S&colon;	!	!	!	!	!	!	!
4GG/	.	4b/	4gg\	4GG/	-bunt,	4g\	-bunt.
4G\	.	8r	8r	8G\	ma-	4r	.
.	.	8b/	4gg\	8G\	-n(us)	.	.
4A\	7	4ccT\	.	8A\	ha-	2r	.
.	6	.	16ff#\LL	16A\	-be(n)t	.	.
.	.	.	16ee\JJ	16A\	et	.	.
8B\L	6	8.b/L	8dd\L	8B\	n(on)	.	.
8G\J	.	.	8gg\J	8G\	pal-	.	.
.	.	16a/Jk	.	.	.	.	.
=33	=33	=33	=33	=33	=33	=33	=33
!	!	!LO:TX:a:t=P:problem:mixed beam	!	!	!	!LO:TX:a:t=2.	!
4c\	.	8g/L	16ee\LL	8c\	-pa-	0r	.
.	.	.	16ff#\	.	.	.	.
.	.	16ee\L	16gg\	8c\	-bunt,	.	.
.	.	16ff#\JJ	16aa\JJ	.	.	.	.
8B\L	6	8gg\L	8bb\L	8B\	pe-	.	.
8G\J	.	8b\J	[8dd\J	8G\	-des	.	.
!	!	!	!	!LO:SIC:v:custos A	!	!	!
!	!	!	!	!LO:LB:g=original	!	!	!
8A\L	4	16b/LL	16dd\LL]	8A\	ha-	.	.
.	3	16a/	16cc\	.	.	.	.
8F#\	.	16a/	16aa\	8F#\	-bent,	.	.
.	.	16a/JJ	16cc\JJ	.	.	.	.
8G\	4	16a/LL	16cc\LL	8G\	et	.	.
.	.	16g/	16b\	.	.	.	.
8E\J	3	16g/	16gg\	8E\	non	.	.
.	.	16g/JJ	16b\JJ	.	.	.	.
!	!	!LO:LB:g=original	!	!	!	!	!
=34	=34	=34	=34	=34	=34	=34	=34
8F#\L	4	16g/LL	16b\LL	8F#\	am-	.	.
.	.	16f#/	16a\	.	.	.	.
8D\	3	16f#/	16ff#\	8D\	-bu-	.	.
.	.	16f#/JJ	16a\JJ	.	.	.	.
8E\	4	16f#/LL	16a/LL	8E\	-la-	.	.
.	.	16e/	16g/	.	.	.	.
8C#X\J	3	16e/	16ee/	8C#X/	-bunt,	.	.
.	.	16e/JJ	16g/JJ	.	.	.	.
!	!	!LO:TX:a:t=P:problem:mixed beam	!LO:TX:a:t=P:problem:mixed beam	!	!	!	!
16D\LL	.	8d/L	8f#/L	16D\LL	nec	.	.
16E\	.	.	.	16E\JJ	.	.	.
16F#\	.	8dd\	8ff#\J	16F#\LL	cla-	.	.
16G\JJ	.	.	.	16G\JJ	.	.	.
8A\L	#	8cc#X\	8ee\L	8A\	-ma-	.	.
16B\L	.	8b\J	16aa\L	16B\	-bu(n)t	.	.
16c#X\JJ	.	.	16gg\JJ	16c#X\	in	.	.
!LO:LB:g=original	!	!	!LO:LB:g=original	!	!	!	!
=35	=35	=35	=35	=35	=35	=35	=35
!LO:TX:a:t=P:problem:mixed beam	!	!	!	!	!	!	!
8d\L	.	8a/L	8ff#\L	8d\	gut-	8r	.
8G\	.	16b/L	16bb\L	16G\	-tu-	4dd\	Si-
.	.	16dd/JJ	16gg\JJ	16G\	-re	.	.
8A\	#	8dd\L	4ee\	4A\	ſu-	.	.
8AA/J	.	8cc#X\J	.	.	.	16cc#X\	-mi-
.	.	.	.	.	.	16cc#\	-les
!	!	!LO:TX:a:t=P:problem:mixed beam	!	!	!	!	!
4D\	.	8dd\L	8dd\L	4D\	-o.	8dd\	il-
.	.	8d/	8a\J	.	.	8a\	-lis
8G\L	.	8d/	8b/L	4r	.	8b\	fi-
8E\J	.	8c#X/J	8g/J	.	.	16a\	-ant
.	.	.	.	.	.	16g\	qui
=36	=36	=36	=36	=36	=36	=36	=36
!	!	!	!	!LO:TX:a:t=1.	!	!	!
8F#\L	6	8d/L	8a/L	1r	.	8a\	fa-
8D\	.	8d/	16g/L	.	.	16g\	-ci-
.	.	.	16f#/JJ	.	.	16f#\	-unt
8E\	7	8d/	4g/	.	.	4g\	e-
8AA\J	7	8c#X/J	.	.	.	.	.
4D\	.	8d/L	8f#/L	.	.	8f#/	-a,
.	.	8f#/	8a/J	.	.	8a\	et
8F#\L	6	8a/	8dd\L	.	.	8dd\	o-
8D\J	.	8a/J	16ff#\L	.	.	16ff#\LL	-mnes
.	.	.	16ee\JJ	.	.	16ee\JJ	.
=37	=37	=37	=37	=37	=37	=37	=37
8B\L	.	8g#X/L	16dd\LL	4r	.	8dd\	qui
.	.	.	16ee\	.	.	.	.
8A\	.	16a/L	16cc#X\	.	.	8cc\	co(n)-
.	.	16b/JJ	16dd\JJ	.	.	.	.
8G#X\	.	8e/L	16b\LL	8r	.	8b\	-fi-
.	.	.	16g#X\	.	.	.	.
8F#\J	.	8a/J	16a\	16F#\	Do-	16a\	-du(n)t
.	.	.	16dd\JJ	16F#\	-mus	16b\	in
!	!	!	!	!	!	!LO:LB:g=original	!
8D\L	6 5	8a/L	4bT\	8F#\	I-	4b\	e-
8E\J	#	8g#X/	.	8G#X\	-srȧ-	.	.
8AA/L	.	8a/	8a\L	8A\	-ėl	4a\	-is.
8D/J	.	8f#/J	16b\L	8d\	ſpe-	.	.
.	.	.	16cc#X\JJ	.	.	.	.
!	!	!	!	!LO:SIC:v:custos B	!	!	!
!	!	!	!	!LO:LB:g=original	!	!	!
=38	=38	=38	=38	=38	=38	=38	=38
!LO:TX:a:t=P:problem:mixed beam	!	!	!	!	!	!	!
8BB/L	.	8f#/L	8dd\L	8B\	-ra-	2r	.
8F#\J	#	8f#/	8a#X\J	16A\	-vit	.	.
.	.	.	.	16A\	in	.	.
4G\	7	8f#/	4b\	8.G\	Do-	.	.
.	6	8e/J	.	.	.	.	.
.	.	.	.	16G\	-mi-	.	.
8F#\	#	8f#/L	8a#X\L	8F#\	-no,	8r	.
!LO:TX:a:t=T.	!	!	!	!	!	!	!
8F#\L	.	8a#X/J	8ff#\J	8F#\	Ad-	8ff#\	Ad-
8G\	7	16b\LL	16bb\LL	8G\	-ju-	8ff#\	-ju-
.	.	16ee\	16ee\	.	.	.	.
8G\J	6	16ee\	16ff#\	16G\	-tor	16ee\	-tor
.	.	16ee\JJ	16gg\JJ	16G\	e-	16ee\	e-
!	!	!	!LO:LB:g=original	!	!	!	!
=39	=39	=39	=39	=39	=39	=39	=39
8F#\L	7	16ee\LL	16aa\LL	8F#\	-o-	8ee\	-o-
.	.	16a\	16dd\	.	.	.	.
8F#\	6	16a\	16dd\	8F#\	-rum,	8dd,\	-rum,
.	.	16dd\JJ	16aa\JJ	.	.	.	.
!	!	!LO:SIC:v:custos dd	!	!	!	!	!
!	!	!LO:LB:g=original	!	!	!	!	!
8E\	7	16dd\LL	16gg\LL	8E\	et	8dd\	et
.	.	16g\	16cc#X\	.	.	.	.
8E\J	6	16g\	16cc#\	8E\	pro-	16cc#X\LL	Pro-
.	.	16cc#X\JJ	16gg\JJ	.	.	16b\JJ	.
8F#\L	#	8a#X/L	8cc#X\L	8F#\	-te-	8a#X\	-te-
8B\J	.	8b/	16dd\L	16B\	-ctor	16b\	-ctor
.	.	.	16b\JJ	16B\	e-	16b\	e-
4F#\	4	8.a#/	4cc#t\	8.F#\	-o-	8.a#X\	-o-
.	#	16b/Jk	.	16F#\	-rum	16b\	-rum
=40	=40	=40	=40	=40	=40	=40	=40
!LO:TX:a:t=S&colon;	!	!	!	!	!	!	!
4BB/	.	8b/	4b\	4BB/	est.	8b\	est.
.	.	4b/	.	.	.	16b\	Do-
.	.	.	.	.	.	16b\	-m(us)
!	!	!	!	!	!	!LO:SIC:v:l:s=Aa-	!
4F#\	4	.	8cc#X\L	4r	.	8b\	A-
.	n	8a/	8ff#\J	.	.	16a,\	-ron
.	.	.	.	.	.	16a\	ſpe-
8BB/L	6 5	4g/	8ff#\L	2r	.	8g\	-ra-
8Cn/	.	.	8ee\J	.	.	16g\	-vit
.	.	.	.	.	.	16g\	in
!	!	!	!	!	!	!LO:SIC:v:custos f#	!
!	!	!	!	!	!	!LO:LB:g=original	!
8D/	.	4f#/	4dd\	.	.	8.f#/	Do-
8GG#X/J	7 5	.	.	.	.	.	.
.	.	.	.	.	.	16f#/	-mi-
!LO:LB:g=original	!	!	!	!	!	!	!
=41	=41	=41	=41	=41	=41	=41	=41
!LO:TX:a:t=P:problem:mixed beam	!	!LO:TX:a:t=P:problem:mixed beam	!	!	!	!	!
8AA/L	#	8e/L	8cc#X\L	8r	.	8e/	-no,
!LO:TX:a:t=T.	!	!	!	!	!	!	!
8A\	.	8cc#X\	8aa\	8A\	Ad-	8cc#X\	Ad-
8B\	.	8dd\	8aa\	8B\	-ju-	8dd\	-ju-
8B\J	6	8dd\J	8gg\J	16B\	-tor	16dd\	-tor
.	.	.	.	16B\	e-	16dd\	e-
!	!	!	!	!LO:SIC:v:custos A	!	!	!
!	!	!	!	!LO:LB:g=original	!	!	!
8A\L	7	8cc#X\L	8gg\L	8A\	-o-	8cc#X\	-o-
8A\	6	8cc#\	8ff#\J	8A,\	-rum,	8cc#X\	-rum
8G\	7	8b\	8ff#\L	8G\	et	8b\	et
8G\J	6	8b\J	16ee\L	8G\	pro-	8b\	pro-
.	.	.	16dd\JJ	.	.	.	.
=42	=42	=42	=42	=42	=42	=42	=42
8A\L	#	8e/L	8cc#X\L	8A\	-te-	8cc#X\	-te-
8D\J	.	8f#/J	8dd\J	16d,\	-ctor,	16dd\	-ctor
.	.	.	.	16d\	e-	16dd\	e-
!LO:TX:a:t=S&colon;	!	!	!	!	!	!	!
4AA/	4	4e/	4cc#t\	8.A\	-o-	8.cc#X\	-o-
.	#	.	.	16A\	-rum	16dd\	-rum
4D\	.	8f#/L	8dd\	4D\	est,	16dd\	e(st),
.	.	.	.	.	.	16dd\	qui
.	.	8f#/	4dd\	.	.	16dd\	ti-
.	.	.	.	.	.	16dd\	-me(n)t
4A\	4	8e/	.	4r	.	8dd\	Do-
.	n	8a/J	8ccn\	.	.	16ccn\	-mi-
.	.	.	.	.	.	16cc\	-nu(m)
!	!	!	!LO:LB:g=original	!	!	!	!
=43	=43	=43	=43	=43	=43	=43	=43
4E\	4	8a/L	8b\	2r	.	8b\	ſpe-
.	3	8g/	4ee\	.	.	8ee\	-ra-
!	!	!	!	!	!	!LO:SIC:v:custos ee	!
!	!	!	!	!	!	!LO:LB:g=original	!
4BB/	4	8f#/	.	.	.	8ee\	-ve-
.	3	8b/J	8dd\	.	.	16dd\	-runt
.	.	.	.	.	.	16dd\	in
*	*	*	*Xtuplet	*	*	*	*
!	!	!LO:TX:a:t=P:problem:mixed beam	!	!	!	!	!
8C/L	.	8a/L	24cc\LL	4r	.	8.cc\	Do-
.	.	.	24b\	.	.	.	.
.	.	.	24a\JJ	.	.	.	.
8C#X/	7	8g/	16b\LL	.	.	.	.
.	.	.	16cc\JJ	.	.	16b\	-mi-
!LO:TX:a:t=T.	!	!	!	!	!	!	!
8D/	.	8f#/	16a\LL	8r	.	8a\	-no,
.	.	.	16dd\	.	.	.	.
8D/J	.	8dd\J	16ee\	8D\	Ad-	8dd\	ad-
.	.	.	16ff#\JJ	.	.	.	.
=44	=44	=44	=44	=44	=44	=44	=44
8E\L	7	8dd\L	16gg\LL	8E\	-ju-	8dd\	-ju-
.	.	.	16aa\	.	.	.	.
8E\	6	8cc\	16bb\	16E\	-tor	16cc\	-tor
.	.	.	16ccc\JJ	16E\	e-	16cc\	e-
8D\	7	8cc\	16ff#\LL	8D\	-o-	8cc\	-o-
.	.	.	16gg\	.	.	.	.
8D\J	6	8b\J	16aa\	8D\	-rum,	8b\	-rum,
.	.	.	16bb\JJ	.	.	.	.
8C/L	7	8b/L	16ee\LL	8C/	et	8b\	et
.	.	.	16ff#\	.	.	.	.
8C/	6	8a/J	16gg\	8C/	pro-	8a\	pro-
.	.	.	16aa\JJ	.	.	.	.
8D/	.	8a/L	8ff#\L	8D/	-te-	8a\	-te-
8G/J	.	16b/L	16gg\L	16G\	-ctor	16b\	-ctor
.	.	16g/JJ	16ee\JJ	16G\	e-	16a\	e-
!	!	!LO:LB:g=original	!	!	!	!	!
=45	=45	=45	=45	=45	=45	=45	=45
4D\	4	4a/	4ff#\	8.D/	-o-	8.a\	-o-
.	3	.	.	16D/	-rum	16g\	-rum
!LO:TX:a:t=P:problem:mixed beam	!	!	!	!	!	!	!
!LO:TX:a:t=S.	!	!	!	!	!	!	!
8GG/L	.	4g/	4gg\	4GG/	est.	4g\	est,
16G\L	.	.	.	.	.	.	.
16F#\JJ	.	.	.	.	.	.	.
!	!	!	!	!LO:SIC:v:custos G	!	!	!
!	!	!	!	!LO:LB:g=original	!	!	!
8E\L	.	2r	2r	8G\	Do-	8r	.
8D\	.	.	.	16B\	-mi-	8b\	et
.	.	.	.	16A\	-n(us)	.	.
8E\	.	.	.	8G\	me-	8b\	be-
8D\J	.	.	.	8F#\	-mor	8b\	-ne-
=46	=46	=46	=46	=46	=46	=46	=46
8C/L	.	1r	1r	16E\LL	fu-	(16g\LL	-di-
.	.	.	.	16F#\JJ	.	16a\)	.
8BB/	.	.	.	8G\	-it	(16b\	-xit
.	.	.	.	.	.	16cc\JJ)	.
8C/	.	.	.	8G\L	no-	4a\	no-
8D/J	.	.	.	8F#\J	.	.	.
!	!	!	!	!	!	!LO:LB:g=original	!
8GG/L	.	.	.	8G\	-stri,	8b,\	-bis,
8BB/	6	.	.	16D\	be-	16g\	be-
.	.	.	.	16D\	-ne-	16g\	-ne-
8C/	.	.	.	8E\	-di-	8ee\	-di-
8D/J	.	.	.	8F#\	-xit	8dd\	-xit
=47	=47	=47	=47	=47	=47	=47	=47
8E\L	6	2r	2r	8G\L	do-	16cc\LL	do-
.	.	.	.	.	.	16ee\	.
8F#\	.	.	.	8A\J	.	16dd\	.
.	.	.	.	.	.	16cc\JJ	.
8G\	.	.	.	8B\	.	16b\	.
.	.	.	.	.	.	16cc#X\	-mu-
8F#\J	6	.	.	16A\	-mu-	8dd\	-i
!LO:TX:b:i:t=Volti Subito.	!	!	!	!	!	!	!
.	.	.	.	16A,\	-i	.	.
!LO:PB:g=original	!	!	!	!	!	!	!
4E\	7	4r	4r	8.G\	I-	8dd\L	Aa-
.	6	.	.	.	.	8cc#X\J	.
.	.	.	.	16G\	-srȧ-	.	.
8D\L	.	8r	8r	8F#\	-ėl	8dd\	-ron,
8G\J	.	8gg\	16bb\LL	16G\	be-	16dd\	be-
.	.	.	16aa\JJ	16G\	-ne-	16dd\	-ne-
!	!	!	!LO:LB:g=original	!	!	!	!
=48	=48	=48	=48	=48	=48	=48	=48
!LO:TX:a:t=Tutti.	!	!	!	!	!	!	!
8c\L	.	16ee\LL	8gg\L	8c\	-di-	8ee\	-di-
.	.	16gg\	.	.	.	.	.
8B\	.	16dd\	8gg\	8B\	-xit	8dd\	-xit
.	.	16gg\JJ	.	.	.	.	.
8c\	.	16ee\LL	8gg\	16c\	om-	16ee\	om-
.	.	16gg\	.	16c\	-ni-	16ee\	-ni-
8A\J	.	16cc\	8ccc\J	16A\	-b(us)	16cc\	-b(us)
.	.	16gg\JJ	.	16A\	qui	16cc\	qui
!	!	!	!	!LO:LB:g=original	!	!	!
8B\L	.	16dd\LL	16bb\LL	8B\	ti-	8b\	ti-
.	.	16gg\	16dd\	.	.	.	.
8G\J	.	16b\	16gg\	8G,\	-ment	16cc\LL	-me(n)t
.	.	16gg\JJ	16bb\JJ	.	.	16dd\JJ	.
4D\	.	8ff#\L	8aa\L	16D\	D(o-	16a\	D(o-
.	.	.	.	16D\	-mi)-	16a\	-mi)-
.	.	8aa\J	8ddd\J	16D,\	-num	16a\	-num
.	.	.	.	16D\	pu-	16a\	pu-
!	!	!	!	!	!	!LO:LB:g=original	!
=49	=49	=49	=49	=49	=49	=49	=49
8BB/L	6	16gg\LL	16ddd\LL	8BB/	-sil-	8dd\	-sil-
.	.	16ff#\	16bb\	.	.	.	.
8E/J	6	16gg\	16ccc\	8E\	-lis,	16cc\LL	-lis,
.	.	16aa\JJ	16ddd\JJ	.	.	16b\JJ	.
8AA/L	7	8gg\L	16ccc\LL	8AA/	cum	8cc\	cum
.	.	.	16aa\	.	.	.	.
8D/J	.	16ff#\L	16bb\	8D\	ma-	16b\LL	ma-
.	.	16ee\JJ	16ccc\JJ	.	.	16a\JJ	.
8GG/L	.	8dd\L	8bb\L	8G\L	-jo-	8b\L	-jo-
8C/J	.	16ee\L	16aa\L	8C\J	.	16a\L	.
.	.	16cc\JJ	16gg\JJ	.	.	16g\JJ	.
4D/	.	4a/	4ff#t\	8.D\	.	8.a\	.
.	.	.	.	16D\	-ri-	16g\	-ri-
=50	=50	=50	=50	=50	=50	=50	=50
4GG/	.	4g/	4gg\	8GG/	-bus.	4g\	-bus.
.	.	.	.	8D\	Ad-	.	.
!LO:TX:a:t=Solo	!	!	!	!	!	!	!
4G\	.	4r	4r	16G\	-ji-	4r	.
.	.	.	.	16A\	-ci-	.	.
.	.	.	.	16B\LL	-at	.	.
.	.	.	.	16c\JJ	.	.	.
4F#\	6	16d/LL	8r	8d\	Do-	2r	.
.	.	16f#/	.	.	.	.	.
.	.	16a/	8aa\	16F#\	-mi-	.	.
.	.	16dd/JJ	.	16F#\	-n(us)	.	.
8G\L	.	8b\L	8bb\L	8G\	ſu-	.	.
8E\J	6\	8cc#X\J	16aa\L	8E\	-per	.	.
.	.	.	16gg\JJ	.	.	.	.
!	!	!LO:LB:g=original	!	!	!	!	!
=51	=51	=51	=51	=51	=51	=51	=51
!LO:TX:a:t=P:problem:mixed beam	!	!	!	!	!	!	!
8D/L	.	16dd\LL	16ff#\LL	8D\	vos,	2r	.
.	.	16a\	16ff#\	.	.	.	.
8d\	.	16a\	16ff#\	16d\	ſu-	.	.
.	.	16a\JJ	16ff#\JJ	16d\	-per	.	.
8G#X\	6 5	8b\L	8ee\L	8G#X\	vos,	.	.
!	!	!	!	!LO:TX:b:t=citó vertatur.	!	!	!
8A\J	.	8ccn\J	8aa\J	8A\	et	.	.
!	!	!	!	!LO:PB:g=original	!	!	!
4D#X\	7 5	16cc\LL	16aa\LL	8D#X\	ſu-	4r	.
.	.	16cc\	16aa\	.	.	.	.
.	.	16cc\	16aa\	8D#\	-per	.	.
.	.	16cc\JJ	16aa\JJ	.	.	.	.
8E\L	.	8b/L	8gg\L	8E\	fi-	8r	.
8BB\J	#	8b/J	16ff#\L	16BB/	-li-	16b\	Be-
.	.	.	16gg\JJ	16BB/	-os	16b\	-ne-
!	!	!	!LO:LB:g=original	!	!	!	!
=52	=52	=52	=52	=52	=52	=52	=52
4C/	7	8b/L	4ee\	4C/	veſ-	8b\	-di-
.	6	8a/J	.	.	.	8a\	-cti
8BB/L	#	4b/	8dd#X\L	4BB/	-tros.	16b\LL	vos
.	.	.	.	.	.	16f#\JJ	.
8D#X/J	.	.	8ff#\	.	.	16g\LL	a
.	.	.	.	.	.	16a\JJ	.
4E\	.	8r	8b\	2r	.	16g/	D(o-
.	.	.	.	.	.	16f#/	-mi)-
.	.	8b/L	8b\J	.	.	8e/	-no,
8E\L	6	8g/	8r	.	.	8r	.
8E\J	.	8e/J	8gg\	.	.	8cc\	qui
!LO:SIC:v:custos D#	!	!	!	!	!	!	!
!LO:LB:g=original	!	!	!	!	!	!	!
=53	=53	=53	=53	=53	=53	=53	=53
!	!	!	!	!LO:TX:a:t=1.	!	!	!
8D#X\L	7	8r	8ff#\L	1r	.	16cc\LL	fe-
.	.	.	.	.	.	16b\JJ	.
8D#\	.	8b/L	8b\J	.	.	8b\	-cit
!	!	!	!	!	!	!LO:LB:g=original	!
8Dn\	6	8b/	8r	.	.	8ff#\	coe-
8D\J	.	8B/J	8ff#\	.	.	16b\	-lum,
.	.	.	.	.	.	16b\	et
8C#X/L	7	8r	8ee\L	.	.	8b\	ter-
8C#/	6_	8ee/L	8a\J	.	.	4a\	.
8C#/	.	8a/	8r	.	.	.	.
8C#/J	5	8a/J	8ee\	.	.	8g\	.
=54	=54	=54	=54	=54	=54	=54	=54
4D\	.	8r	8a/L	8A\	Cae-	8f#/	.
.	.	8dd/L	8a/J	8A\	-lu(m)	8d/	-ram.
4F#\	6	8a/	8r	8d\	coe-	4r	.
.	.	8d/J	8aa\L	8c\	-li	.	.
4G\	.	8r	8gg\	8B\	Do-	2r	.
.	.	8b/L	8dd\J	16A\	-mi-	.	.
.	.	.	.	16G\	-no	.	.
4BB/	6	8dd/	8r	8G\	ter-	.	.
.	.	8g/J	8dd\	8Fn\	-ra(m)	.	.
=55	=55	=55	=55	=55	=55	=55	=55
4C/	3	8r	8ee\L	8E\	au-	2r	.
.	6	8dd/L	8cc\J	8A\	-te(m)	.	.
4C#X/	.	8ee/	8r	8A\	de-	.	.
.	.	8a/J	8ee\	8G\	-dit	.	.
8D\L	.	8r	8dd\L	8F#\	fi-	8r	.
8G\J	.	8g/L	8b\	16G\	-li-	8g\	Non
.	.	.	.	16G\	-is	.	.
4D\	.	8a/	8a\	8.D\	ho-	8.a\	mor-
.	.	8dd/J	8ff#\J	.	.	.	.
.	.	.	.	16D\	-mi-	16a\	-tu-
=56	=56	=56	=56	=56	=56	=56	=56
!LO:TX:a:t=P:problem:mixed beam	!	!	!LO:TX:a:t=P:problem:mixed beam	!	!	!	!
8GG/L	.	8b/L	8gg\L	4GG/	-nu(m),	8b,\	-i
8G\	.	8g/J	8g/	.	.	8b\	lau-
8Fn\	5	8a/L	8a/	4r	.	8cc\	-da-
8D\J	6	16g/L	8b/J	.	.	16dd,\	-bu(n)t
.	.	16fn/JJ	.	.	.	16dd\	te
!	!	!LO:SIC:v:custos e	!	!	!	!	!
!	!	!LO:LB:g=original	!	!LO:LB:g=original	!	!	!
4C/	.	8e/L	8cc\L	8r	.	8ee\	D(o-
.	.	8g/	16ee\L	16c\	ne-	16ee\	-mi)-
.	.	.	16dd\JJ	16B\	-q(ue)	16ee\	-ne,
4Fn\	.	8a/	8cc\L	8A\	om-	4r	.
.	.	8a/J	8a\J	8Fn\	-nes	.	.
!	!	!	!LO:LB:g=original	!	!	!	!
=57	=57	=57	=57	=57	=57	=57	=57
4D/	n	8d/L	8ffn\L	8D\	qui	8r	.
.	.	8d/	16dd\L	16Fn\LL	de-	16a'\LL	qui
.	.	.	16ff\JJ	16D\JJ	.	16fn'\JJ	de-
8BB/L	6	8d/	8g/L	8BB/	-sce(n)-	8d/	-sce(n)-
8GG/J	.	8d/J	8b/J	8GG/	-du(n)t	8d/	-du(n)t
8C/L	-	8e-X/L	8cc\L	8C/	in	8e-X/	in
8FF#X/J	7	8d/J	8cc\	8FF#X/	in-	8d/	in-
4GG/	.	4d/	8cc\	4GG/	-fer-	4d/	-fer-
.	.	.	8b\J	.	.	.	.
!	!	!	!	!	!	!LO:PB:g=original	!
=58	=58	=58	=58	=58	=58	=58	=58
!	!	!LO:TX:a:t=P:problem:mixed beam	!	!	!	!	!
8C\L	.	8c/L	8cc\L	8C,/	-nu(m),	8c/	-num,
!LO:TX:a:t=T.	!	!	!	!	!	!	!
8C\	.	8ee\J	8gg\J	8C/	sed	8een\	sed
8E\	.	16ee\LL	16gg\LL	8E\	nos	8ee\	nos
.	.	16ee\	16gg\	.	.	.	.
8G\J	.	16dd\	16gg\	8G\	qui	8dd\	qui
.	.	16dd\JJ	16gg\JJ	.	.	.	.
4A\	7	16cc\LL	16gg\LL	8A\	vi-	8cc\	vi-
.	n	16cc\	16gg\	.	.	.	.
.	.	16cc\	16ffn\	16A\	-vi-	16cc\	-vi-
.	6	16cc\JJ	16ff\JJ	16A\	-m(us)	16cc\	-mus
4B\	6 5	16dd\LL	16ff\LL	8B\	be-	8dd\	be-
.	.	16dd\	16ff\	.	.	.	.
.	.	16dd\	16ff\	8B\	-ne-	8dd\	-ne-
.	.	16dd\JJ	16ff\JJ	.	.	.	.
!LO:LB:g=original	!	!	!	!	!	!	!
=59	=59	=59	=59	=59	=59	=59	=59
8c\L	.	8ee\L	16ee\LL	8c\	-di-	8ee\	-di-
.	.	.	16ff#X\JJ	.	.	.	.
8G\J	.	8b\J	4gg\	16G\	-ci-	16dd\	-ci-
.	.	.	.	16G\	-m(us)	16dd\	-mus
4A\	7	4cc\	.	8.A\	D(o-	8.cc\	Do-
.	6\	.	8ff#\	.	.	.	.
.	.	.	.	16A\	-mi)-	16cc\	-mi-
4G\	.	8b\L	4gg\	4G\	-no,	8b\	-no
.	.	16dd\L	.	.	.	16dd\	ex
.	.	16dd\JJ	.	.	.	16dd\	hoc
8r	.	8.ee\L	8r	8r	.	8.ee\	nu(n)c,
8G\	.	.	16gg\LL	16G\	ex	.	.
.	.	16dd\Jk	16gg\JJ	16G\	hoc	16dd\	et
=60	=60	=60	=60	=60	=60	=60	=60
8.A\L	.	8.cc\L	8.ccc\L	8.A\	nu(n)c	8cc\	us-
.	.	.	.	.	.	8cc\	-que
16G\Jk	.	16cc\K	16bb\Jk	16G\	et	.	.
!	!	!	!	!LO:LB:g=original	!	!	!
8Fn\L	6	8cc\	8aa\L	8Fn\	us-	8r	.
16E\L	.	8dd\J	8bb\J	16E,\	-q(ue)	8dd\	us-
16D\JJ	.	.	.	16D\	in	.	.
8E\L	7 #	8dd\L	8gg#X\L	8E\L	ſae-	8dd\	-que
8A\J	.	8cc\J	8aa\	8A\J	.	8cc\	in
!	!	!	!	!	!	!LO:LB:g=original	!
4E\	4	4b/	8aa\	8.E\	.	8.b\	ſae-
.	#	.	8gg#\J	.	.	.	.
.	.	.	.	16E\	-cu-	16a\	-cu-
!	!	!	!LO:LB:g=original	!	!	!	!
=61	=61	=61	=61	=61	=61	=61	=61
4AA/	.	4a/	4aa\	4AA/	-lum,	8a\	-la.
.	.	.	.	.	.	4a\	Glo-
!LO:TX:a:t=S&colon;	!	!	!	!	!	!	!
8A\L	.	4r	4r	4r	.	.	.
8G\J	.	.	.	.	.	16b\	-ri-
.	.	.	.	.	.	16b\	-a
8F#X\L	6 5	2r	2r	8r	.	8cc\	Pa-
8G\J	.	.	.	4G\	et	16b\	-tri,
.	.	.	.	.	.	16cc\	et
4D\	4	.	.	.	.	8.a\	Fi-
.	3	.	.	8F#\	Spi-	.	.
.	.	.	.	.	.	16g\	-li-
=62	=62	=62	=62	=62	=62	=62	=62
8G\L	9	1r	1r	4.B\	-ri-	4g\	-o,
8E\	.	.	.	.	.	.	.
8A\	9	.	.	.	.	8.cc\	Glo-
8F#\J	.	.	.	16A\	-ru-	.	.
.	.	.	.	16G\	-i	16cc\	-ri-
4.D#X/	7 5	.	.	8A\L	San-	8cc\	-a,
.	6 4	.	.	8G\J	.	16b\	et
.	.	.	.	.	.	16b\	Spi-
.	5_ 3_	.	.	[4F#\	.	4a\	-ri-
8C#X/	.	.	.	.	.	.	.
.	X X	.	.	.	.	.	.
=63	=63	=63	=63	=63	=63	=63	=63
!LO:TX:a:t=P:problem:mixed beam	!	!	!	!	!	!	!
8BB/L	7 #	2r	2r	8F#\L]	.	8a\	-tu-
8E\J	.	.	.	8E\J	.	8g\	-i
4BB/	4	.	.	4D#X\	.	4f#/	S(an)-
.	#	.	.	.	.	.	.
8E\L	.	8r	8r	8E,\	-cto,	8e,/	-cto,
8E\	.	8b\L	8ee\L	16E\	ſi-	16b\	Si-
.	.	.	.	16E\	-cut	16b\	-cut
!LO:TX:a:t=T.	!	!	!	!	!	!	!
8A\	.	8cc\	8ee\	8A\	e-	8cc\	e-
8G\J	.	8b\J	8ee\J	8G\	-rat	8b\	-rat
!	!	!LO:LB:g=original	!	!	!	!LO:LB:g=original	!
=64	=64	=64	=64	=64	=64	=64	=64
8A\L	.	8cc\L	8ee\L	8A\	in	8cc\	in
8F#\	.	8a\J	8dd\	8F#\	prin-	8a\	prin-
8G\	.	8.b/L	8dd\	8.G\	-ci-	8.b\	-ci-
8F#\J	.	.	8dd\J	.	.	.	.
.	.	16a/Jk	.	16F#\	-pi-	16a\	-pi-
!LO:LB:g=original	!	!LO:TX:a:t=P:problem:mixed beam	!	!	!	!	!
8E\L	.	8g/L	8ee\L	8E\	-o,	8g\	-o,
!	!	!	!	!LO:LB:g=original	!	!	!
8BB\	6	8dd\	8gg\	8BB/	et	8dd\	et
8C\	.	8ee\	8gg\	8C/	nu(n)c,	8ee\	nu(n)c,
8D\J	.	8dd\J	8ff#\J	8D/	et	8dd\	et
=65	=65	=65	=65	=65	=65	=65	=65
4E\	7	8dd\L	4gg\	4E\	ſem-	8dd\L	ſem-
.	6\	8cc#X\J	.	.	.	8cc#X\J	.
4D\	.	8dd\L	4ff#\	4D\	-per,	8dd,\	-per,
.	.	16dd\L	.	.	.	16dd\	et
!	!	!	!	!	!	!LO:SIC:v:s=16ccn	!
.	.	16ccn\JJ	.	.	.	16cc#\	in
8r	.	8b\L	8r	8r	.	8b\	ſae-
!	!	!	!	!	!	!LO:SIC:v:s=16ccn	!
16G\LL	.	16cc\L	8dd\	16G\	et	16cc#\	-cu-
16F#\JJ	.	16dd\JJ	.	16F#\	in	16dd\	-la
8E\L	.	8ee\L	8gg\L	8E\	ſae-	[<4ee\	ſae-
16F#\L	.	8dd\J	8ff#\J	16F#\	-cu-	.	.
16G\JJ	.	.	.	16G\	-la	.	.
=66	=66	=66	=66	=66	=66	=66	=66
!	!	!	!	!	!	!LO:N:xstem:cue	!
4.A\	.	4.cc\	4.ee\	4.A\	ſae-	8ee\]	.
.	.	.	.	.	.	8dd\	-cu-
.	.	.	.	.	.	8cc\	-lo-
8G\	.	8b/	16ff#\LL	8G\	-cu-	16b\LL	-rum
.	.	.	16gg\JJ	.	.	16cc\JJ	.
8F#\L	6	8a/L	8aa\L	8F#\	-lo-	4.dd\	a-
16E\L	.	8dd/J	16gg\L	16E\LL	-ru(m)	.	.
16F#\JJ	.	.	16aa\JJ	16F#\JJ	.	.	.
4G\	.	4b/	8bb\L	[4G\	A-	.	.
.	.	.	16aa\L	.	.	16cc\LL	.
.	.	.	16bb\JJ	.	.	16dd\JJ	.
!	!	!	!	!	!	!LO:SIC:v:custos b	!
!	!	!	!LO:LB:g=original	!	!	!LO:LB:g=original	!
=67	=67	=67	=67	=67	=67	=67	=67
!LO:N:xstem:cue	!	!LO:N:xstem:cue	!	!LO:N:xstem:cue	!	!	!
8G\	.	8b/	4.gg\	8G\]	.	4.b\	.
16F#\LL	.	16a/LL	.	16F#\LL	.	.	.
16G\JJ	.	16b/JJ	.	16G\JJ	.	.	.
4.E\	5	4.g/	.	4.E\	.	.	.
.	.	.	16ff#\LL	.	.	16a\LL	.
.	.	.	16gg\JJ	.	.	16b\JJ	.
.	6	.	8ee\L	.	.	4.cc\	.
16D\LL	.	16f#/LL	8ee\	16D\LL	.	.	.
16E\JJ	.	16g/JJ	.	16E\JJ	.	.	.
8F#\L	6 5	8a/L	8dd\	8F#\	.	.	.
8G\J	.	8b/J	8gg\J	8G\	-men	8b\	.
=68	=68	=68	=68	=68	=68	=68	=68
1D	5 3	8cc/L	8ff#\L	1D	A-	4a\	.
.	.	8a/	8dd\J	.	.	.	.
.	6 4	8b/	4.gg\	.	.	8b\L	-men
.	5 4	8g/J	.	.	.	8g\J	.
*	*	*	*	*	*	*2\right	*
.	x 3	2a/	.	.	.	2a\	a-
.	.	.	16ff#\LL	.	.	.	.
.	.	.	16ee\JJ	.	.	.	.
.	.	.	4ff#\	.	.	.	.
=69	=69	=69	=69	=69	=69	=69	=69
1GG	.	1b	1gg	1GG	-men.	1g	-men.
==;	==	==;;	==	==;;	==	==	==
*-	*-	*-	*-	*-	*-	*-	*-
!!!system-decoration: [g1][g2]s5
!!!RDF**kern: < = below
!!!ENC: Marta Lawrence
!!!END: 2020-12-30
!!!ENC: Andrzej Borzym
!!!END: 2020-06-23
